src/images/icons/issues.svg

<svg width="20" height="20" viewBox="0 0 20 20" fill="none" xmlns="http://www.w3.org/2000/svg">
<path fill-rule="evenodd" clip-rule="evenodd" d="M10 0C4.48001 0 0 4.47751 0 9.99445C0 15.5114 4.48001 19.9889 10 19.9889C15.52 19.9889 20 15.5114 20 9.99445C20 4.47751 15.52 0 10 0ZM9.00001 14.9917V12.9928H11V14.9917H9.00001ZM9.00001 4.99722V10.9939H11V4.99722H9.00001Z" fill="black"/>
</svg>

<svg width="20" height="20" fill="none" xmlns="http://www.w3.org/2000/svg"><path fill-rule="evenodd" clip-rule="evenodd" d="M10 0C4.48 0 0 4.478 0 9.994c0 5.517 4.48 9.995 10 9.995s10-4.478 10-9.995C20 4.478 15.52 0 10 0zM9 14.992v-2h2v2H9zm0-9.995v5.997h2V4.997H9z" fill="#000"/></svg>
